static/images/platforms/svelte.svg

<svg xmlns="http://www.w3.org/2000/svg" viewBox="0 0 128 128"><path d="M110.846 18.026C99.182 1.33 76.145-3.618 59.489 6.995L30.236 25.639a33.56 33.56 0 0 0-15.161 22.479 35.348 35.348 0 0 0 3.485 22.691 33.647 33.647 0 0 0-5.02 12.543 35.767 35.767 0 0 0 6.109 27.047c11.668 16.695 34.704 21.641 51.358 11.029l29.252-18.644a33.555 33.555 0 0 0 15.162-22.479 35.364 35.364 0 0 0-3.482-22.69 33.671 33.671 0 0 0 5.017-12.543 35.75 35.75 0 0 0-6.109-27.046" style="fill:#ff3e00"/><path d="M56.632 111.968a23.235 23.235 0 0 1-24.94-9.243 21.5 21.5 0 0 1-3.675-16.266c.17-.925.404-1.837.699-2.731l.551-1.68 1.499 1.1a37.687 37.687 0 0 0 11.443 5.718l1.086.329-.1 1.085a6.56 6.56 0 0 0 1.181 4.35 6.995 6.995 0 0 0 7.508 2.788 6.442 6.442 0 0 0 1.797-.791l29.254-18.641a6.089 6.089 0 0 0 2.748-4.072 6.493 6.493 0 0 0-1.107-4.903 7 7 0 0 0-7.512-2.789 6.457 6.457 0 0 0-1.795.79l-11.162 7.116a21.325 21.325 0 0 1-5.941 2.607 23.235 23.235 0 0 1-24.939-9.244 21.497 21.497 0 0 1-3.675-16.265A20.174 20.174 0 0 1 38.67 37.71l29.251-18.643a21.316 21.316 0 0 1 5.944-2.613 23.239 23.239 0 0 1 24.94 9.245 21.504 21.504 0 0 1 3.675 16.265 20.763 20.763 0 0 1-.699 2.732l-.551 1.68-1.498-1.099a37.732 37.732 0 0 0-11.444-5.72l-1.088-.33.102-1.085a6.588 6.588 0 0 0-1.18-4.35 7.003 7.003 0 0 0-7.51-2.787 6.498 6.498 0 0 0-1.797.79L47.562 50.439a6.079 6.079 0 0 0-2.747 4.071 6.489 6.489 0 0 0 1.106 4.902 7.003 7.003 0 0 0 7.512 2.789 6.551 6.551 0 0 0 1.797-.789l11.16-7.114a21.287 21.287 0 0 1 5.94-2.611 23.236 23.236 0 0 1 24.94 9.244 21.508 21.508 0 0 1 3.676 16.265 20.194 20.194 0 0 1-9.12 13.52l-29.25 18.641a21.266 21.266 0 0 1-5.944 2.611" style="fill:#fff"/></svg>

<?xml version="1.0" encoding="utf-8"?>
<svg viewBox="0 0 128 128" xmlns="http://www.w3.org/2000/svg">
  <path d="M 110.846 18.026 C 99.182 1.33 76.145 -3.618 59.489 6.995 L 30.236 25.639 C 22.247 30.666 16.741 38.826 15.075 48.118 C 13.68 55.859 14.906 63.844 18.56 70.809 C 16.056 74.607 14.348 78.875 13.54 83.352 C 11.856 92.822 14.059 102.571 19.649 110.399 C 31.317 127.094 54.353 132.04 71.007 121.428 L 100.259 102.784 C 108.251 97.757 113.754 89.597 115.421 80.305 C 116.816 72.564 115.59 64.581 111.939 57.615 C 114.442 53.815 116.148 49.549 116.956 45.072 C 118.641 35.602 116.439 25.852 110.847 18.026" style="fill: rgb(255, 62, 0);"/>
  <path d="M 56.632 111.968 C 47.202 114.421 37.245 110.729 31.692 102.725 C 28.328 98.017 27.004 92.154 28.017 86.459 C 28.187 85.534 28.421 84.622 28.716 83.728 L 29.267 82.048 L 30.766 83.148 C 34.226 85.692 38.097 87.626 42.209 88.866 L 43.295 89.195 L 43.195 90.28 C 43.063 91.825 43.481 93.366 44.376 94.63 C 46.046 97.042 49.045 98.155 51.884 97.418 C 52.52 97.247 53.125 96.982 53.681 96.627 L 82.935 77.986 C 84.382 77.074 85.381 75.596 85.683 73.914 C 85.987 72.196 85.588 70.43 84.576 69.011 C 82.903 66.598 79.905 65.485 77.064 66.222 C 76.43 66.393 75.823 66.658 75.269 67.012 L 64.107 74.128 C 62.271 75.295 60.268 76.174 58.166 76.735 C 48.737 79.187 38.78 75.496 33.227 67.491 C 29.863 62.784 28.539 56.921 29.552 51.226 C 30.555 45.638 33.864 40.732 38.67 37.71 L 67.921 19.067 C 69.757 17.897 71.762 17.017 73.865 16.454 C 83.294 14.003 93.252 17.694 98.805 25.699 C 102.168 30.405 103.492 36.268 102.48 41.964 C 102.309 42.889 102.076 43.802 101.781 44.696 L 101.23 46.376 L 99.732 45.277 C 96.27 42.733 92.401 40.798 88.288 39.557 L 87.2 39.227 L 87.302 38.142 C 87.433 36.599 87.014 35.058 86.122 33.792 C 84.449 31.381 81.451 30.269 78.612 31.005 C 77.976 31.176 77.371 31.442 76.815 31.795 L 47.562 50.439 C 46.115 51.349 45.117 52.827 44.815 54.51 C 44.51 56.225 44.909 57.993 45.921 59.412 C 47.593 61.824 50.591 62.937 53.433 62.201 C 54.068 62.031 54.673 61.763 55.23 61.412 L 66.39 54.298 C 68.225 53.129 70.228 52.249 72.33 51.687 C 81.76 49.235 91.717 52.926 97.27 60.931 C 100.633 65.639 101.958 71.502 100.946 77.196 C 99.941 82.785 96.632 87.692 91.826 90.716 L 62.576 109.357 C 60.739 110.527 58.735 111.407 56.632 111.968" style="fill: rgb(255, 255, 255);"/>
</svg>
